build/images/icons/tarifs/tarif_2.svg

<svg width="65" height="65" viewBox="0 0 65 65" fill="none" xmlns="http://www.w3.org/2000/svg">
<g clip-path="url(#clip0)">
<path d="M48.75 0C43.3734 0 39 4.37341 39 9.75C39 15.1266 43.3734 19.5 48.75 19.5C54.1266 19.5 58.5 15.1266 58.5 9.75C58.5 4.37341 54.1266 0 48.75 0ZM48.75 16.25C45.1609 16.25 42.25 13.3401 42.25 9.75C42.25 6.15989 45.1609 3.25 48.75 3.25C52.3401 3.25 55.25 6.15989 55.25 9.75C55.25 13.3401 52.3401 16.25 48.75 16.25Z" fill="#0034FF"/>
<path d="M61.7504 41.275H61.3312L58.4483 25.4193C58.1666 23.8734 56.8212 22.75 55.2504 22.75H42.2504C40.6806 22.75 39.334 23.8734 39.0524 25.4193L35.8024 43.2943C35.6302 44.2423 35.887 45.2183 36.5045 45.9582C37.1231 46.697 38.0363 47.1249 39.0005 47.1249H41.0772L42.2613 62.0077C42.3955 63.6967 43.8061 65 45.5004 65H52.0004C53.6958 65 55.1063 63.6967 55.2396 62.0078L55.778 55.25H61.7504C63.5455 55.25 65.0004 53.7951 65.0004 52V44.525C65.0004 42.7299 63.5455 41.275 61.7504 41.275ZM52.0004 61.75H45.5004L44.078 43.875H39.0004L42.2504 26H47.1254V35.8865C47.1254 36.7845 47.8523 37.5115 48.7504 37.5115C49.6485 37.5115 50.3754 36.7845 50.3754 35.8865V26H55.2504L58.027 41.275H51.3504C49.5553 41.275 48.1004 42.7299 48.1004 44.525V52C48.1004 53.7951 49.5553 55.25 51.3504 55.25H52.5171L52.0004 61.75ZM61.7504 52H51.3504V44.525H61.7504V52Z" fill="#0034FF"/>
<path d="M34.125 13.2058V6.5C34.125 5.60193 33.3981 4.875 32.5 4.875H24.375C23.4769 4.875 22.75 5.60193 22.75 6.5C22.75 8.29296 21.293 9.75 19.5 9.75C17.707 9.75 16.25 8.29296 16.25 6.5C16.25 5.60193 15.5231 4.875 14.625 4.875H6.5C5.60193 4.875 4.875 5.60193 4.875 6.5V13.2058C2.07568 13.9296 0 16.4753 0 19.5C0 22.5247 2.07568 25.0704 4.875 25.7942V40.625C4.875 41.5231 5.60193 42.25 6.5 42.25C8.29296 42.25 9.75 43.707 9.75 45.5C9.75 47.293 8.29296 48.75 6.5 48.75C5.60193 48.75 4.875 49.4769 4.875 50.375V58.5C4.875 59.3981 5.60193 60.125 6.5 60.125H13.2058C13.9294 62.9243 16.4753 65 19.5 65C22.5247 65 25.0704 62.9243 25.7942 60.125H32.5C33.3981 60.125 34.125 59.3981 34.125 58.5V50.375C34.125 49.4769 33.3981 48.75 32.5 48.75C30.707 48.75 29.25 47.293 29.25 45.5C29.25 43.707 30.707 42.25 32.5 42.25C33.3981 42.25 34.125 41.5231 34.125 40.625V25.7942C36.9243 25.0706 39 22.5247 39 19.5C39 16.4753 36.9243 13.9296 34.125 13.2058ZM30.875 39.2058C28.0757 39.9294 26 42.4753 26 45.5C26 48.5247 28.0757 51.0704 30.875 51.7942V56.875H24.375C23.4769 56.875 22.75 57.6019 22.75 58.5C22.75 60.293 21.293 61.75 19.5 61.75C17.707 61.75 16.25 60.293 16.25 58.5C16.25 57.6019 15.5231 56.875 14.625 56.875H8.125V51.7942C10.9243 51.0706 13 48.5247 13 45.5C13 42.4753 10.9243 39.9296 8.125 39.2058V34.125H14.625C15.5231 34.125 16.25 33.3981 16.25 32.5C16.25 30.707 17.707 29.25 19.5 29.25C21.293 29.25 22.75 30.707 22.75 32.5C22.75 33.3981 23.4769 34.125 24.375 34.125H30.875V39.2058ZM32.5 22.75C31.6019 22.75 30.875 23.4769 30.875 24.375V30.875H25.7942C25.0706 28.0757 22.5247 26 19.5 26C16.4753 26 13.9296 28.0757 13.2058 30.875H8.125V24.375C8.125 23.4769 7.39807 22.75 6.5 22.75C4.70704 22.75 3.25 21.293 3.25 19.5C3.25 17.707 4.70704 16.25 6.5 16.25C7.39807 16.25 8.125 15.5231 8.125 14.625V8.125H13.2058C13.9294 10.9243 16.4753 13 19.5 13C22.5247 13 25.0704 10.9243 25.7942 8.125H30.875V14.625C30.875 15.5231 31.6019 16.25 32.5 16.25C34.293 16.25 35.75 17.707 35.75 19.5C35.75 21.293 34.293 22.75 32.5 22.75Z" fill="#0034FF"/>
</g>
<defs>
<clipPath id="clip0">
<rect width="65" height="65" fill="white"/>
</clipPath>
</defs>
</svg>

<svg width="65" height="65" fill="none" xmlns="http://www.w3.org/2000/svg"><g clip-path="url(#clip0)" fill="#0034FF"><path d="M48.75 0C43.373 0 39 4.373 39 9.75s4.373 9.75 9.75 9.75 9.75-4.373 9.75-9.75S54.127 0 48.75 0zm0 16.25a6.5 6.5 0 110-13 6.5 6.5 0 010 13zm13 25.025h-.419l-2.883-15.856a3.25 3.25 0 00-3.198-2.669h-13a3.252 3.252 0 00-3.198 2.67l-3.25 17.874a3.25 3.25 0 003.199 3.83h2.076l1.184 14.884A3.25 3.25 0 0045.501 65H52a3.249 3.249 0 003.239-2.992l.538-6.758h5.972A3.25 3.25 0 0065 52v-7.475a3.25 3.25 0 00-3.25-3.25zM52 61.75h-6.5l-1.422-17.875H39L42.25 26h4.875v9.886a1.624 1.624 0 103.25 0V26h4.875l2.777 15.275H51.35a3.25 3.25 0 00-3.25 3.25V52a3.25 3.25 0 003.25 3.25h1.167L52 61.75zM61.75 52h-10.4v-7.475h10.4V52z"/><path d="M34.125 13.206V6.5c0-.898-.727-1.625-1.625-1.625h-8.125c-.898 0-1.625.727-1.625 1.625a3.252 3.252 0 01-3.25 3.25 3.252 3.252 0 01-3.25-3.25c0-.898-.727-1.625-1.625-1.625H6.5c-.898 0-1.625.727-1.625 1.625v6.706C2.075 13.93 0 16.476 0 19.5c0 3.025 2.076 5.57 4.875 6.294v14.831c0 .898.727 1.625 1.625 1.625a3.252 3.252 0 013.25 3.25 3.252 3.252 0 01-3.25 3.25c-.898 0-1.625.727-1.625 1.625V58.5c0 .898.727 1.625 1.625 1.625h6.706c.723 2.8 3.27 4.875 6.294 4.875 3.025 0 5.57-2.076 6.294-4.875H32.5c.898 0 1.625-.727 1.625-1.625v-8.125c0-.898-.727-1.625-1.625-1.625a3.252 3.252 0 01-3.25-3.25 3.252 3.252 0 013.25-3.25c.898 0 1.625-.727 1.625-1.625v-14.83C36.925 25.07 39 22.524 39 19.5s-2.076-5.57-4.875-6.294zm-3.25 26c-2.8.723-4.875 3.27-4.875 6.294 0 3.025 2.076 5.57 4.875 6.294v5.081h-6.5c-.898 0-1.625.727-1.625 1.625a3.252 3.252 0 01-3.25 3.25 3.252 3.252 0 01-3.25-3.25c0-.898-.727-1.625-1.625-1.625h-6.5v-5.08C10.925 51.07 13 48.524 13 45.5s-2.076-5.57-4.875-6.294v-5.081h6.5c.898 0 1.625-.727 1.625-1.625a3.252 3.252 0 013.25-3.25 3.252 3.252 0 013.25 3.25c0 .898.727 1.625 1.625 1.625h6.5v5.08zM32.5 22.75c-.898 0-1.625.727-1.625 1.625v6.5h-5.08C25.07 28.075 22.524 26 19.5 26s-5.57 2.076-6.294 4.875H8.125v-6.5c0-.898-.727-1.625-1.625-1.625a3.252 3.252 0 01-3.25-3.25 3.252 3.252 0 013.25-3.25c.898 0 1.625-.727 1.625-1.625v-6.5h5.08C13.93 10.925 16.476 13 19.5 13s5.57-2.076 6.294-4.875h5.081v6.5c0 .898.727 1.625 1.625 1.625a3.252 3.252 0 013.25 3.25 3.252 3.252 0 01-3.25 3.25z"/></g><defs><clipPath id="clip0"><path fill="#fff" d="M0 0h65v65H0z"/></clipPath></defs></svg>
